svgs/regular/list.svg

<svg xmlns="http://www.w3.org/2000/svg" viewBox="0 0 512 512"><!--! Font Awesome Pro 6.0.0-alpha3 by @fontawesome - https://fontawesome.com License - https://fontawesome.com/license (Commercial License) --><path d="M80 208h-64C7.125 208 0 215.1 0 224v64c0 8.875 7.125 16 16 16h64C88.88 304 96 296.9 96 288V224C96 215.1 88.88 208 80 208zM80 368h-64C7.125 368 0 375.1 0 384v64c0 8.875 7.125 16 16 16h64C88.88 464 96 456.9 96 448v-64C96 375.1 88.88 368 80 368zM80 48h-64C7.125 48 0 55.13 0 64v64c0 8.875 7.125 16 16 16h64C88.88 144 96 136.9 96 128V64C96 55.13 88.88 48 80 48zM488 232H183.1C170.7 232 160 242.7 160 256s10.75 24 23.1 24H488C501.3 280 512 269.3 512 256S501.3 232 488 232zM488 72H183.1C170.7 72 160 82.75 160 95.1S170.7 120 183.1 120H488c13.25 0 24-10.75 24-23.1S501.3 72 488 72zM488 392H183.1C170.7 392 160 402.7 160 416s10.75 24 23.1 24H488c13.25 0 24-10.75 24-24S501.3 392 488 392z"/></svg>

<svg xmlns="http://www.w3.org/2000/svg" viewBox="0 0 512 512"><!-- Font Awesome Pro 5.15.3 by @fontawesome - https://fontawesome.com License - https://fontawesome.com/license (Commercial License) --><path d="M80 48H16A16 16 0 0 0 0 64v64a16 16 0 0 0 16 16h64a16 16 0 0 0 16-16V64a16 16 0 0 0-16-16zm0 160H16a16 16 0 0 0-16 16v64a16 16 0 0 0 16 16h64a16 16 0 0 0 16-16v-64a16 16 0 0 0-16-16zm0 160H16a16 16 0 0 0-16 16v64a16 16 0 0 0 16 16h64a16 16 0 0 0 16-16v-64a16 16 0 0 0-16-16zm416-136H176a16 16 0 0 0-16 16v16a16 16 0 0 0 16 16h320a16 16 0 0 0 16-16v-16a16 16 0 0 0-16-16zm0 160H176a16 16 0 0 0-16 16v16a16 16 0 0 0 16 16h320a16 16 0 0 0 16-16v-16a16 16 0 0 0-16-16zm0-320H176a16 16 0 0 0-16 16v16a16 16 0 0 0 16 16h320a16 16 0 0 0 16-16V88a16 16 0 0 0-16-16z"/></svg>
